X:1
T:Mazurka : La Vieille Mazurka
Z:Ren Quiniou (http://www.irisa.fr/prive/quiniou)
R:Mazurka-Valse
A:France
M:3/4
L:1/8
K:C
B cd|: e2 ed  Be|d2 dc Bc|d2 dc Bc|e3  B cd|
|e2 ed  Be|d2 dc Bc|1d2 dc BA|G3  B cd:|2d2 de fe|
|:cB cd ed|GB cd ed|AA Bc dc|AA Bc dc|
GB cd ed|GB cd ed|AA Bc de|1fe dc Bd:|2fe dc Bd:|
